svg/Octicons/light-bulb.svg

<svg height="1024" width="1024" xmlns="http://www.w3.org/2000/svg">
  <path d="M512 64c-176.731 0-320 143.269-320 320 0 104.69 50.278 197.633 128 256.015V832c0 35.346 28.653 64 64 64 0 35.346 28.653 64 64 64h128c35.347 0 64-28.654 64-64 35.347 0 64-28.654 64-64V640.015C781.722 581.633 832 488.69 832 384 832 207.269 688.731 64 512 64zM640 800c0 17.673-14.326 32-32 32H416c-17.674 0-32-14.327-32-32v-32h256V800zM704 553.307c-33.234 33.03-64 42.389-64 124.041V704h-64V576l128-128v-64l-64-64-64 64-64-64-64 64-64-64-64 64v64l128 128v128h-64v-26.652c0-81.652-30.766-91.011-64-124.041C280.177 508.18 256 448.918 256 384c0-141.385 114.615-256 256-256s256 114.615 256 256C768 448.918 743.823 508.18 704 553.307zM512 576L384 448v-64l64 64 64-64 64 64 64-64v64L512 576z" />
</svg>

<svg xmlns="http://www.w3.org/2000/svg" viewBox="0 0 1024 1024"><path d="m512 64c-176.73 0-320 143.27-320 320 0 104.69 50.28 197.63 128 256.01v191.99c0 35.35 28.653 64 64 64 0 35.35 28.653 64 64 64h128c35.35 0 64-28.654 64-64 35.35 0 64-28.654 64-64v-191.99c77.72-58.38 128-151.32 128-256.01 0-176.73-143.27-320-320-320m128 736c0 17.673-14.326 32-32 32h-192c-17.674 0-32-14.327-32-32v-32h256v32m64-246.69c-33.23 33.03-64 42.39-64 124.04v26.652h-64v-128l128-128v-64l-64-64-64 64-64-64-64 64-64-64-64 64v64l128 128v128h-64v-26.652c0-81.65-30.766-91.01-64-124.04-39.823-45.13-64-104.39-64-169.31 0-141.38 114.62-256 256-256s256 114.62 256 256c0 64.918-24.18 124.18-64 169.31m-192 22.693l-128-128v-64l64 64 64-64 64 64 64-64v64l-128 128"/></svg>
